svgs/thin/house-chimney-crack.svg

<svg xmlns="http://www.w3.org/2000/svg" viewBox="0 0 576 512"><!--! Font Awesome Pro 6.1.1 by @fontawesome - https://fontawesome.com License - https://fontawesome.com/license (Commercial License) Copyright 2022 Fonticons, Inc. --><path d="M282.7 2.011C285.7-.6704 290.3-.6704 293.3 2.011L384 82.34V56C384 42.75 394.7 32 408 32H488C501.3 32 512 42.75 512 56V195.7L573.3 250C576.6 252.9 576.9 257.1 573.1 261.3C571.1 264.6 566 264.9 562.7 261.1L512 217.1V448C512 483.3 483.3 512 448 512H128C92.65 512 64 483.3 64 448V217.1L13.3 261.1C9.997 264.9 4.941 264.6 2.012 261.3C-.9182 257.1-.6116 252.9 2.696 250L282.7 2.011zM496 181.5V56C496 51.58 492.4 48 488 48H408C403.6 48 400 51.58 400 56V96.51L496 181.5zM288 18.69L80 202.9V448C80 474.5 101.5 496 128 496H281.1L225.3 412.4C224.1 410.6 223.7 408.3 224.2 406.2C224.7 404 226.1 402.2 228 401.1L330.2 342.7L226.8 254.1C223.4 251.2 223.1 246.1 225.9 242.8C228.8 239.4 233.9 239.1 237.2 241.9L349.2 337.9C351.2 339.6 352.2 342.2 351.1 344.8C351.7 347.3 350.2 349.7 347.1 350.9L243.4 410.7L300.3 496H448C474.5 496 496 474.5 496 448V202.9L384.3 104H384V103.7L288 18.69z"/></svg>

<svg xmlns="http://www.w3.org/2000/svg" viewBox="0 0 576 512"><!--! Font Awesome Pro 6.4.2 by @fontawesome - https://fontawesome.com License - https://fontawesome.com/license (Commercial License) Copyright 2023 Fonticons, Inc. --><path d="M282.7 2c3-2.7 7.6-2.7 10.6 0L384 82.3V56c0-13.3 10.7-24 24-24h80c13.3 0 24 10.7 24 24V195.7L573.3 250c3.3 2.9 3.6 8 .7 11.3s-8 3.6-11.3 .7L512 217.1V448c0 35.3-28.7 64-64 64H128c-35.3 0-64-28.7-64-64V217.1L13.3 262c-3.3 2.9-8.4 2.6-11.3-.7S-.6 252.9 2.7 250L282.7 2zM496 181.5V56c0-4.4-3.6-8-8-8H408c-4.4 0-8 3.6-8 8V96.5l96 85zM384 103.7l-96-85L80 202.9V448c0 26.5 21.5 48 48 48H281.1l-55.7-83.6c-1.2-1.8-1.6-4.1-1.1-6.3s1.9-4 3.8-5.1l102.1-58.4L226.8 254.1c-3.4-2.9-3.7-7.9-.9-11.3s7.9-3.7 11.3-.9l112 96c2 1.7 3 4.2 2.8 6.8s-1.7 4.9-4 6.2L243.4 410.7 300.3 496H448c26.5 0 48-21.5 48-48V202.9L384.3 104H384v-.3z"/></svg>
